humanity-icon-theme/Humanity/actions/24/go-up.svg

<?xml version="1.0" encoding="UTF-8" standalone="no"?>
<!-- Created with Inkscape (http://www.inkscape.org/) -->
<svg
   xmlns:svg="http://www.w3.org/2000/svg"
   xmlns="http://www.w3.org/2000/svg"
   xmlns:xlink="http://www.w3.org/1999/xlink"
   version="1.0"
   width="24"
   height="24"
   id="svg3231">
  <defs
     id="defs3233">
    <linearGradient
       id="linearGradient5105-262-943-861">
      <stop
         id="stop2487"
         style="stop-color:#0d0d0d;stop-opacity:1"
         offset="0" />
      <stop
         id="stop2489"
         style="stop-color:#0d0d0d;stop-opacity:0"
         offset="1" />
    </linearGradient>
    <radialGradient
       cx="11.25"
       cy="19.03125"
       r="8.0625"
       fx="11.25"
       fy="19.03125"
       id="radialGradient2505"
       xlink:href="#linearGradient5105-262-943-861"
       gradientUnits="userSpaceOnUse"
       gradientTransform="matrix(1,0,0,0.282946,0,13.64644)" />
    <linearGradient
       id="linearGradient3390-178-986-453">
      <stop
         id="stop3624"
         style="stop-color:#bb2b12;stop-opacity:1"
         offset="0" />
      <stop
         id="stop3626"
         style="stop-color:#cd7233;stop-opacity:1"
         offset="1" />
    </linearGradient>
    <linearGradient
       x1="16.82023"
       y1="22.012308"
       x2="16.82023"
       y2="0.99999952"
       id="linearGradient3229"
       xlink:href="#linearGradient3390-178-986-453"
       gradientUnits="userSpaceOnUse" />
    <linearGradient
       id="linearGradient7012-661-145-733-759-865-745-661-970-94">
      <stop
         id="stop3618"
         style="stop-color:#f0c178;stop-opacity:1"
         offset="0" />
      <stop
         id="stop3270"
         style="stop-color:#e18941;stop-opacity:1"
         offset="0.53510612" />
      <stop
         id="stop3620"
         style="stop-color:#ec4f18;stop-opacity:1"
         offset="1" />
    </linearGradient>
    <linearGradient
       x1="6.7995591"
       y1="23.890965"
       x2="43.091583"
       y2="23.890965"
       id="linearGradient2515"
       xlink:href="#linearGradient7012-661-145-733-759-865-745-661-970-94"
       gradientUnits="userSpaceOnUse"
       gradientTransform="matrix(0,0.4917505,-0.482368,0,23.524238,0.5921474)" />
    <linearGradient
       id="linearGradient4222">
      <stop
         id="stop4224"
         style="stop-color:#ffffff;stop-opacity:1"
         offset="0" />
      <stop
         id="stop4226"
         style="stop-color:#ffffff;stop-opacity:0"
         offset="1" />
    </linearGradient>
    <linearGradient
       x1="41.012573"
       y1="26.022907"
       x2="8.5082436"
       y2="26.022907"
       id="linearGradient2512"
       xlink:href="#linearGradient4222"
       gradientUnits="userSpaceOnUse"
       gradientTransform="matrix(0,-0.5703354,-0.5568703,0,26.661377,25.865582)" />
  </defs>
  <g
     id="layer1">
    <path
       d="M 19.3125,19.03125 C 19.3125,20.29115 15.702796,21.3125 11.25,21.3125 C 6.7972041,21.3125 3.1874999,20.29115 3.1875,19.03125 C 3.1874999,17.77135 6.7972041,16.75 11.25,16.75 C 15.702796,16.75 19.3125,17.77135 19.3125,19.03125 L 19.3125,19.03125 z"
       transform="matrix(1.4883719,0,0,1.4465766,-4.7441844,-6.8301629)"
       id="path4346"
       style="opacity:0.16292138;fill:url(#radialGradient2505);fill-opacity:1;fill-rule:nonzero;stroke:none;stroke-width:1;marker:none;visibility:visible;display:inline;overflow:visible" />
    <path
       d="M 21.507286,12.5 L 11.976116,1.4927132 L 2.4927136,12.5 L 6.5,12.5 L 6.5,21.507286 L 17.5,21.507286 L 17.5,12.5 L 21.507286,12.5 z"
       id="path4348"
       style="fill:url(#linearGradient2515);fill-opacity:1;fill-rule:nonzero;stroke:url(#linearGradient3229);stroke-width:0.98542732;stroke-linecap:round;stroke-linejoin:round;marker:none;stroke-miterlimit:4;stroke-dasharray:none;stroke-dashoffset:0;stroke-opacity:1;visibility:visible;display:inline;overflow:visible" />
    <path
       d="M 19.3874,11.5 L 12,2.9679448 L 4.6615226,11.5 L 7.5,11.5 L 7.5,20.5 L 16.5,20.5 L 16.5,11.5 L 19.3874,11.5 z"
       id="path4360"
       style="opacity:0.4;fill:none;stroke:url(#linearGradient2512);stroke-width:0.98542732;stroke-linecap:butt;stroke-linejoin:miter;marker:none;stroke-miterlimit:4;stroke-dasharray:none;stroke-dashoffset:0;stroke-opacity:1;visibility:visible;display:inline;overflow:visible" />
  </g>
</svg>

<?xml version="1.0" encoding="UTF-8" standalone="no"?>
<!-- Created with Inkscape (http://www.inkscape.org/) -->

<svg
   xmlns:svg="http://www.w3.org/2000/svg"
   xmlns="http://www.w3.org/2000/svg"
   xmlns:xlink="http://www.w3.org/1999/xlink"
   version="1.0"
   width="24"
   height="24"
   id="svg2">
  <defs
     id="defs4">
    <linearGradient
       id="linearGradient5105-262-943-861">
      <stop
         id="stop2487"
         style="stop-color:#0d0d0d;stop-opacity:1"
         offset="0" />
      <stop
         id="stop2489"
         style="stop-color:#0d0d0d;stop-opacity:0"
         offset="1" />
    </linearGradient>
    <radialGradient
       cx="11.25"
       cy="19.03125"
       r="8.0625"
       fx="11.25"
       fy="19.03125"
       id="radialGradient2505"
       xlink:href="#linearGradient5105-262-943-861"
       gradientUnits="userSpaceOnUse"
       gradientTransform="matrix(1,0,0,0.282946,0,13.64644)" />
    <linearGradient
       id="linearGradient4168">
      <stop
         id="stop4170"
         style="stop-color:#f8cd70;stop-opacity:1"
         offset="0" />
      <stop
         id="stop4172"
         style="stop-color:#cc9110;stop-opacity:1"
         offset="1" />
    </linearGradient>
    <linearGradient
       x1="15.658319"
       y1="23.890965"
       x2="43.091583"
       y2="23.890965"
       id="linearGradient2515"
       xlink:href="#linearGradient4168"
       gradientUnits="userSpaceOnUse"
       gradientTransform="matrix(0,0.4917505,-0.482368,0,23.524238,0.5921474)" />
    <linearGradient
       id="linearGradient4222">
      <stop
         id="stop4224"
         style="stop-color:white;stop-opacity:1"
         offset="0" />
      <stop
         id="stop4226"
         style="stop-color:white;stop-opacity:0"
         offset="1" />
    </linearGradient>
    <linearGradient
       x1="37.390652"
       y1="26.022907"
       x2="-7.150826"
       y2="26.022907"
       id="linearGradient2512"
       xlink:href="#linearGradient4222"
       gradientUnits="userSpaceOnUse"
       gradientTransform="matrix(0,-0.5703354,-0.5568703,0,26.661377,25.865582)" />
  </defs>
  <g
     id="layer1">
    <path
       d="m 19.3125,19.03125 a 8.0625,2.28125 0 1 1 -16.125,0 8.0625,2.28125 0 1 1 16.125,0 z"
       transform="matrix(1.4883719,0,0,1.4465766,-4.7441844,-6.8301629)"
       id="path4346"
       style="opacity:0.16292138;fill:url(#radialGradient2505);fill-opacity:1;fill-rule:nonzero;stroke:none;stroke-width:1;marker:none;visibility:visible;display:inline;overflow:visible" />
    <path
       d="M 21.507286,12.5 11.976116,1.4927132 2.4927136,12.5 6.5,12.5 l 0,9.007286 11,0 0,-9.007286 4.007286,0 z"
       id="path4348"
       style="fill:url(#linearGradient2515);fill-opacity:1;fill-rule:nonzero;stroke:#bf8407;stroke-width:0.98542732;stroke-linecap:round;stroke-linejoin:round;stroke-miterlimit:4;stroke-opacity:1;stroke-dasharray:none;stroke-dashoffset:0;marker:none;visibility:visible;display:inline;overflow:visible" />
    <path
       d="M 19.3874,11.5 12,2.9679448 4.6615226,11.5 7.5,11.5 l 0,9 9,0 0,-9 2.8874,0 z"
       id="path4360"
       style="opacity:0.35400008;fill:none;stroke:url(#linearGradient2512);stroke-width:0.98542732;stroke-linecap:butt;stroke-linejoin:miter;stroke-miterlimit:4;stroke-opacity:1;stroke-dasharray:none;stroke-dashoffset:0;marker:none;visibility:visible;display:inline;overflow:visible" />
  </g>
</svg>
